clock-alert.svg

<svg fill="currentColor" viewBox="0 0 24 24"><path d="M20 12h2v6h-2zm0 8h2v2h-2zM12 2C6.5 2 2 6.5 2 12s4.5 10 10 10c2.3 0 4.3-.8 6-2V10h3.8c-.9-4.6-5-8-9.8-8m4.2 14.2L11 13V7h1.5v5.2l4.5 2.7z"/></svg>

<svg  viewBox="0 0 24 24" fill="currentColor"><path  d="M20 12H22V18H20V12M20 20H22V22H20V20M12 2C6.5 2 2 6.5 2 12S6.5 22 12 22C14.3 22 16.3 21.2 18 20V10H21.8C20.9 5.4 16.8 2 12 2M16.2 16.2L11 13V7H12.5V12.2L17 14.9L16.2 16.2Z"/></svg>
